svgs/regular/columns-3.svg

<svg xmlns="http://www.w3.org/2000/svg" viewBox="0 0 640 512"><!--! Font Awesome Pro 6.4.2 by @fontawesome - https://fontawesome.com License - https://fontawesome.com/license (Commercial License) Copyright 2023 Fonticons, Inc. --><path d="M448 80V432H576c8.8 0 16-7.2 16-16V96c0-8.8-7.2-16-16-16H448zm-48 0H240V432H400V80zM192 432V80H64c-8.8 0-16 7.2-16 16V416c0 8.8 7.2 16 16 16H192zM0 96C0 60.7 28.7 32 64 32H576c35.3 0 64 28.7 64 64V416c0 35.3-28.7 64-64 64H64c-35.3 0-64-28.7-64-64V96z"/></svg>

<svg xmlns="http://www.w3.org/2000/svg" viewBox="0 0 640 512"><!--! Font Awesome Pro 6.1.1 by @fontawesome - https://fontawesome.com License - https://fontawesome.com/license (Commercial License) Copyright 2022 Fonticons, Inc. --><path d="M0 96C0 60.65 28.65 32 64 32H576C611.3 32 640 60.65 640 96V416C640 451.3 611.3 480 576 480H64C28.65 480 0 451.3 0 416V96zM448 432H576C584.8 432 592 424.8 592 416V96C592 87.16 584.8 80 576 80H448V432zM400 80H240V432H400V80zM192 432V80H64C55.16 80 48 87.16 48 96V416C48 424.8 55.16 432 64 432H192z"/></svg>
